X:1
T:Sleepers, Wake
T:Sleepers, Wake
T:Philip Nicolai, 1599
T:Public Domain Courtesy of the Cyber Hymnal™
C:Philip Nicolai, 1599
Z:Public Domain
Z:Courtesy of the Cyber Hymnal™
%%score ( 1 2 ) ( 3 4 )
L:1/8
Q:1/4=113
M:none
K:D
V:1 treble 
V:2 treble 
V:3 bass 
V:4 bass 
V:1
|: [A,D]2 [DF]2 [EA]2 [EA]2 | [DA]2 [FA]2 B4 | [FA]6 [EA]2 | d2 z ([Fd] [Ge]) [Af]2 x | %4
 [Ae]2 [Bd]2 [Ac]2 z x2 | [EA]6 [FA]2 | [Gd]2 [FA]2 [DB]2 [DF]2 | (GF) [CE]2 !fermata![A,D]2 :| %8
 [EA]2 | A2 z F2 [CE]2 x | D6 [EA]2 | A3 [EG] [DF]2 [CE]2 x | D8 | [B,E]2 [DF]2 [DG]4 | %14
 [DF]6 [FA]2 | B2 z !fermata![Fd]2 ([Fd][Ge]) x | f2 z !fermata![Fd]2 A2 x2 | d2 A2 [GB]2 [DF]2 | %18
 (GF) [CE]2 [A,D]4 |] %19
V:2
|: x8 | x4 F2 E2 | x8 | A3 (A2 G) x2 | x6 (B2 ^G) | x8 | x8 | D2 x4 :| x2 | F3 (G2 E) (A,B,) | %10
 D6 x2 | (DC) B, x6 | D8 | x8 | x8 | (FE) (c2 F) x3 | A3 (e2 G) x (FG) | (AG) (AF) x4 | D2 x6 |] %19
V:3
|: [D,F,]2 [B,,B,]2 [A,,C]2 C2 | A,2 (DC) B,3 C | [D,D]6 C2 | [F,D]2 D2 [D,A,]2 D2 | E2 E2 E3 z D | %5
 [A,,C]6 D2 | D2 (D=C) B,2 [B,,B,]2 | (B,A,) [A,,G,]2 !fermata![D,F,]2 :| [C,A,]2 | %9
 (DC) (B,C) D2 [A,,G,] x | [B,,F,]6 (A,G,) | [D,F,]2 (G,A,) B,3 z ^A, | [B,,B,]8 | %13
 [E,G,]2 [B,,B,]2 [G,,B,]4 | [D,A,]6 D2 | [^G,D]2 [^A,C]2 !fermata!B,2 [B,D]2 | %16
 D2 [A,C]2 !fermata![D,D]2 D2 x | A,2 D2 D2 B,2 | (B,A,) [A,,G,]2 [D,F,]4 |] %19
V:4
|: x6 (A,G,) | (F,E,) D,2 G,4 | x6 (A,G,) | x2 (F,E,) x D2 x | (CB,) (A,^G,) A,2 E,2 x | %5
 x6 (D,=C,) | (B,,=C,) D,2 (G,,A,,) x2 | E,2 x4 :| x2 | D,2 E,2 (F,G,) A, x | x6 C,2 | %11
 x2 E,2 F,2 F,,2 x | x8 | x8 | x6 D2 | x4 B,2 x2 | F,G, x3 (D,E,) x2 | (F,E,) (F,D,) (G,A,) B,2 | %18
 E,2 x6 |] %19

